X:1
T:Et respicientes - Marenzio
T:#
%%score [ 1 2 3 4 ]
L:1/8
Q:1/4=200
M:none
K:C
V:1 treble nm="Soprano" snm="S"
V:2 treble nm="Alto" snm="A"
V:3 treble-8 nm="Tenor" snm="T"
V:4 bass nm="Bass" snm="B"
V:1
"^Et respicientes""^Luca Marenzio\n(1556-1599)""^Mark 16: 4" z16 | z16 | G12 A4 | B4 G4 c8 | %4
w: ||Et re-|spi- ci- en-|
 B4 G8 C4 | E4 F4 G8 | E8 z4 A4 |[M:4/2] (e6 d2 c2 B2 A4) | G8 z4 (C4- | C2 D2 E4) F8 | %10
w: tes, et re-|spi- ci- en-|tes, vi-|de\- * * * *|runt, vi\-|* * * de-|
 (E6 D2 E2 F2 G4) | z16 | z4 d8 G4 | B4 c4 d8 | G8 z4 G4- | G4 C4 E4 F4 | G8 G8 | G8 A8 | B8 z8 | %19
w: runt, * * * *||et re-|spi- ci- en-|tes, et|* re- spi- ci-|en- tes|vi- de-|runt|
 z16 | z4 c8 _B4 | A6 G2 F4 E4 | D8 ^F8- | F4 ^F4 G8 | G8 A8- | A4 G4 (G8- | G4 ^F2 E2) F8 | %27
w: |re- vo-|lu- tum la- pi-|dem. E\-|* rat quip-|pe ma\-|* gnus val\-|* * * de.|
 z4 B6 A2 B4 | G4 A6 G2 A4 | ^F4 G6 F2 G4 | E4 ^F6 E2 F4 | G4 d6 B2 d4 | A4 c6 A2 c4 | %33
w: Al- le- lu-|ia, Al- le- lu-|ia, Al- le- lu-|ia, Al- le- lu-|ia, Al- le- lu-|ia, Al- le- lu-|
 G4 B6 B2 ^c4 | d4 A6 G2 A4 | B2 B4 A2 B4 G4 | A6 G2 A4 d4 | %37
w: ia, Al- le- lu-|ia, Al- le- lu-|ia, Al- le- lu- ia,|Al- le- lu- ia,|
[Q:1/4=197] G6[Q:1/4=195] ^F2[Q:1/4=193] G4[Q:1/4=190] E4 | %38
w: Al- le- lu- ia,|
[Q:1/4=188] ^F4[Q:1/4=186] F2[Q:1/4=184] (G4[Q:1/4=182] F[Q:1/4=182]E[Q:1/4=180] F4) | %39
w: Al- le- lu\- * * *|
[Q:1/4=174] G16 |] %40
w: ia.|
V:2
 z16 | z16 | z8 G8- | G4 C4 E4 F4 | (G6 F2 E8- | E4) C4 z4 G4- | G4 C4 E4 F4 |[M:4/2] G8 (C6 B,A, | %8
w: ||Et|* re- spi- ci-|en\- * *|* tes, et|* re- spi- ci-|en- tes * *|
 B,4) E4 (E6 D2 | C2 B,2 A,6 G,2 F,4) | G,4 A,8 D4 | F6 E2 D4 ^C4 | D8 B,4 C4 | D12 B,4 | %14
w: * vi- de\- *||runt re- vo-|lu- tum la- pi-|dem, et re-|spi- ci-|
 E8 D4 G,4 | (G6 F2 E2 D2 C4) | D8 (C6 D2 | E2 F2 G8) ^F4 | G6 =F2 E4 D4 | E8 z8 | z4 E8 D4 | %21
w: en- tes vi-|de\- * * * *|runt re\- *|* * * vo-|lu- tum la- pi-|dem,|re- vo-|
 F6 E2 D4 ^C4 | D8 A,8- | A,4 A,4 B,8 | E8 F8 | C4 (E6 DC B,2 C2 | D8) D8 | D16 | C16 | B,16 | %30
w: lu- tum la- pi-|dem. E\-|* rat quip-|pe ma-|gnus val\- * * * *|* de.|Al-|le-|lu-|
 A,16 | D6 C2 D4 B,4 | C6 B,2 C4 A,4 | B,6 A,2 B,4 G,4 | A,6 G,2 A,4 D4 | z8 G8 | F16 | E16 | %38
w: ia,|Al- le- lu- ia,|Al- le- lu- ia,|Al- le- lu- ia,|Al- le- lu- ia,|Al-|le-|lu-|
 D16- | D16 |] %40
w: ia.||
V:3
 G12 A4 | B4 G4 c8 | B8 e8 | (e6 d2 c2 B2 A4) | G8 z4 G4- | G4 A4 B4 G4 | (c6 B2 A8) | %7
w: Et re-|spi- ci- en-|tes vi-|de\- * * * *|runt, et|* re- spi- ci-|en\- * *|
[M:4/2][K:treble-8] G8 z4 A4 | (e6 d2 c2 B2 A4) | e4 c8 B4 | c6 B2 A4 G4 | c8 z8 | z16 | z8 G8- | %14
w: tes vi-|de\- * * * *|runt re- vo-|lu- tum la- pi-|dem,||et|
 G4 A4 B8 | G8 c8 | B8 e4 (e4- | e2 d2 c2 B2 A8) | G4 B8 A4 | c6 B2 A4 ^G4 | A8 z8 | z16 | z8 d8- | %23
w: * re- spi-|ci- en-|tes vi- de\-||runt re- vo-|lu- tum la- pi-|dem.||E\-|
 d4 d4 d8 | c8 c8 | A4 (c6 BA G2 A2 | B4 A2 G2 A8) | G8 z8 | z16 | z16 | z16 | B6 A2 B4 G4 | %32
w: * rat quip-|pe ma-|gnus va\- * * * *||de.||||Al- le- lu- ia,|
 A6 G2 A4 F4 | G6 F2 G4 E4 | F6 E2 F4 D2 d2- | d2 e2 d4 B4 c4- | c2 d2 c4 A4 B4- | %37
w: Al- le- lu- ia,|Al- le- lu- ia,|Al- le- lu- ia, Al\-|* le- lu- ia, Al\-|* le- lu- ia, Al\-|
 B2 c2 B4 G4 A4- | A4 B4 A8 | G16 |] %40
w: * le- lu- ia, Al\-|* le- lu-|ia.|
V:4
 z8 G,8- | G,4 C,4 E,4 F,4 | G,8 C,8 | z16 | z4 E,4 (E,6 D,2 | C,2 B,,2 A,,4) G,,8 | z4 C,8 D,4 | %7
w: Et|* re- spi- ci-|en- tes||vi- de\- *|* * * rnt,|et re-|
[M:4/2] E,4 C,4 F,8 | E,8 A,8 | (A,6 G,2 F,2 E,2 D,4) | C,4 C8 B,4 | A,6 G,2 F,4 E,4 | D,8 G,,8- | %13
w: spi- ci- en-|tes vi-|de\- * * * *|runt re- vo-|lu- tum la- pi-|dem, et|
 G,,4 A,,4 B,,4 G,,4 | C,8 B,,4 E,4 | (E,6 D,2 C,2 B,,2 A,,4) | G,,8 z8 | z16 | z4 G,8 F,4 | %19
w: * re- spi- ci-|en- tes vi-|de\- * * * *|runt||re- vo-|
 E,6 D,2 C,4 B,,4 | A,,8 z8 | z16 | z8 D,8- | D,4 D,4 G,8 | C,8 F,8- | F,4 C,4 E,8 | D,16 | %27
w: lu- tum la- pi-|dem.||E\-|* rat quip-|pe ma\-|* gnus val-|de.|
 z4 G,6 ^F,2 G,4 | E,4 =F,6 E,2 F,4 | D,4 E,6 D,2 E,4 | ^C,4 D,6 C,2 D,4 | G,,8 G,8 | F,16 | E,16 | %34
w: Al- le- lu-|ia, Al- le- lu-|ia, Al- le- lu-|ia, Al- le- lu-|ia, Al-|le-|lu-|
 D,16 | G,6 F,2 G,4 E,4 | F,6 E,2 F,4 D,4 | E,6 D,2 E,4 C,4 | D,6 G,,2 D,8 | G,,16 |] %40
w: ia,|Al- le- lu- ia,|Al- le- lu- ia,|Al- le- lu- ia,|Al- le- lu-|ia.|

